X:1
T:The Best Friend to Have is Jesus
T:The Best Friend to Have is Jesus
T:Peter Philip Bilhorn
T:Peter Philip Bilhorn, 1891
T:Public Domain Courtesy of the Cyber Hymnal™
T:Public Domain Courtesy of the Cyber Hymnal™
C:Peter Philip Bilhorn
Z:Public Domain
Z:Courtesy of the Cyber Hymnal™
%%score ( 1 2 ) ( 3 4 )
L:1/8
Q:1/4=105
M:4/4
K:G
V:1 treble 
V:2 treble 
V:3 bass 
V:4 bass 
V:1
 [B,D]>[B,G] | [DB]2 [DB]>[^C^A] [DB]2 [E=c]2 | [CE]4 [CA]2 [B,G]>[B,G] | %3
w: 1.~Oh, the|best friend to have is|Je- sus, When the|
w: 2.~What a|friend I have found in|Je- sus! Peace and|
w: 3.~Though I|pass through the night of|sor- row, And the|
w: 4.~When at|last to our home we|ga- ther, With the|
 [CF]>[CG] [CF]>[CE] [CD]2 [Ec]2 | [DB]6 [B,D]>[CE] | [B,D]>[DB] [DB]>[Ec] [DB]2 [=Fd]>[Fd] x2 | %6
w: cares of life up- on you|roll; He will|heal the wounde- d heart, He will|
w: com- fort to my soul He|brings; Lean- ing|on His might- y arm, I will|
w: chil- ly waves of Jord- an|roll, Ne- ver|need I shrink nor fear, For my|
w: loved ones who have gone be-|fore, We will|sing up- on the shore, Prais- ing|
 [=Fd]>[Ec] [Ec]>[Ec] !fermata![CE]2 !fermata![Ed]>[Ed] | [Ed]2 [Ec]>[Ec] [DF]2 [DB]2 | %8
w: strength and grace im- part; Oh, the|best friend to have is|
w: fear no ill nor harm; Oh, the|best friend to have is|
w: Sav- ior is so near, Oh, the|best friend to have is|
w: Him for- ev- er- more; Oh, the|best friend to have is|
 [CA]4 [B,G]2 z ||"^Refrain" [Gd] | [Gd]2 [GB]>[Gc] [Gd]2 [Ge]2 | d4 [Fc]2 z | %12
w: Je- sus.||||
w: Je- sus.|The|best friend to have is|Je- sus,|
w: Je- sus.||||
w: Je- sus.||||
 [Ac] [Ac]2 [FA]>[GB] [Ac]2 [Bd]2 | c4 [GB]2 [Gd][Gd] | [Gd][GB]G[GA] [GB]2 | %15
w: |||
w: The best friend to have is|Je- sus, He will|help you when you fall,|
w: |||
w: |||
 [Gd][Gd][Ge][Ec] [EA][EB] !fermata![Ec]2 (3:2:2[Ge]2 [Ge] | [Gd]2 [GB]>G [GB]3 [Ac] | %17
w: ||
w: He will hear you when you call; Oh, the|best friend to have is|
w: ||
w: ||
 [FA]4 !fermata![B,G]2 |] %18
w: |
w: Je- sus.|
w: |
w: |
V:2
 x2 | x8 | x8 | x8 | x8 | x10 | x8 | x8 | x7 || x | x8 | (GBAG) x3 | x9 | (AFGA) x4 | x6 | x10 | %16
 x8 | x6 |] %18
V:3
 z2 | z2 D,2 G,2 z2 | z2 A,2 E,2 z2 | z2 A,2 F,2 z2 | (z2 D,2 G,2) z2 | z2 D,2 z2 B,,2 x2 | %6
 z2 E,2 !fermata![A,,A,]2 !fermata![B,,^G,]2 | [C,A,-]4 A,2 G,2 | [D,F,]4 [G,,G,]2 z || [G,B,] | %10
 [G,B,]2 G,>[G,A,] [G,B,]2 [C,C]2 | (B,DCB,) [D,A,]2 z | [D,D] [D,D]2 [D,D]>[D,D] [D,D]2 [D,D]2 | %13
 D4 [G,D]2 [G,B,][G,B,] | [G,B,][G,D][G,B,][G,C] [G,D]2 | %15
 [G,B,][G,B,][C,C][C,G,] [C,A,][B,,^G,] !fermata![A,,A,]2 (3:2:2[^C,^A,]2 [C,A,] | %16
 [D,B,]2 [D,D]>[D,B,] [D,D]3 [D,D] | [D,C]4 !fermata![G,,G,]2 |] %18
V:4
 x2 | G,,6 x2 | A,,6 x2 | D,6 x2 | G,,6 x2 | G,,6 G,4 | C,4 x4 | x4 D,4 | x7 || x | x2 G,3/2 x9/2 | %11
 D,4 x3 | x9 | (F,D,E,F,) x4 | x6 | x10 | x8 | x6 |] %18

